X:1
T:Highland Mary
C:Traditional
M:4/4
L:1/4
Q:1/4=116
K:D
A | D D D/2C/2B,/2A,/2 | D E/2F/2 GF/2G/2 | dd A/2F/2G/2F/2 | ED A,2 |
D D D/2C/2B,/2A,/2 | D E/2F/2 GF/2G/2 | dd A/2F/2G/2F/2 | D2 D |]
